X: 547
T: Ebeneezer
C:Traditional
B: jims roots
M:4/4
L:1/8
Q: 1/4=100
K:G
V:1 
x Bc |: "G"dBdB GABc | dedB G2Bc | d2 [d2g][df][d3g] | "D"[A3a][Aa][A2a] AB |
cBAG FGAB | cBAG FGef | gfed BAFD | "G"[G2G,] ([G2G,][G2G,]) Bc :|
|: "G"d2 gB [gB][fB] [g2B] | [Ba][B2b][Bb][B2b] (g2 | g)dgd gd [B2g] | [Ba][B2b] [Bb][B2b] fg |
"D"afbf afdf | afbf afef | gfed BAFD | "G"[G2G,] ([G2G,][G2G,]) Bc :|
% abcbook-tune_id 6298c25dfabc4c86b5b3c0dd


% abcbook-boost 0
% abcbook-tablature 
% abcbook-transpose 
% abcbook-lastupdated 1654178397836
% abcbook-soundfonts 
% abcbook-repeats 1


